www/assets/images/test_icons/flags/NP.svg

<svg fill="none" height="15" viewBox="0 0 13 15" width="13" xmlns="http://www.w3.org/2000/svg" xmlns:xlink="http://www.w3.org/1999/xlink"><clipPath id="a"><path d="m0 0h13v15h-13z"/></clipPath><mask id="b" height="15" maskUnits="userSpaceOnUse" width="21" x="0" y="0"><path d="m19 0h-17c-1.10457 0-2 .89543-2 2v11c0 1.1046.89543 2 2 2h17c1.1046 0 2-.8954 2-2v-11c0-1.10457-.8954-2-2-2z" fill="#fff"/></mask><g clip-path="url(#a)"><g mask="url(#b)"><g clip-rule="evenodd" fill-rule="evenodd"><path d="m0 0 13 8h-7l7 7h-13z" fill="#003495"/><path d="m1 2 8 5h-6l7 7h-8.002c-.55 0-.998-.456-.998-1.002z" fill="#df0a37"/><path d="m4.915 5c.055.078.085.162.085.25 0 .414-.672.75-1.5.75s-1.5-.336-1.5-.75c0-.088.03-.172.085-.25.206.146.762.25 1.415.25s1.21-.104 1.415-.25z" fill="#fff"/></g><path d="m3.5 13c.82843 0 1.5-.6716 1.5-1.5s-.67157-1.5-1.5-1.5-1.5.6716-1.5 1.5.67157 1.5 1.5 1.5z" fill="#fff"/><path d="m1.762 1.303c-.697-.442999-1.262-.128-1.262.695v11.004c0 .827.668 1.498 1.503 1.498h9.997l-7-7h6.5z" stroke="#000" stroke-opacity=".1"/></g></g></svg>

<svg width="13" height="15" viewBox="0 0 13 15" fill="none" xmlns="http://www.w3.org/2000/svg">
<g clip-path="url(#clip0_3_78)">
<mask id="mask0_3_78" style="mask-type:alpha" maskUnits="userSpaceOnUse" x="0" y="0" width="21" height="15">
<path d="M19 0H2C0.89543 0 0 0.89543 0 2V13C0 14.1046 0.89543 15 2 15H19C20.1046 15 21 14.1046 21 13V2C21 0.89543 20.1046 0 19 0Z" fill="white"/>
</mask>
<g mask="url(#mask0_3_78)">
<path fill-rule="evenodd" clip-rule="evenodd" d="M0 0L13 8H6L13 15H0V0Z" fill="#003495"/>
<path fill-rule="evenodd" clip-rule="evenodd" d="M1 2L9 7H3L10 14H1.998C1.448 14 1 13.544 1 12.998V2Z" fill="#DF0A37"/>
<path fill-rule="evenodd" clip-rule="evenodd" d="M4.915 5C4.97 5.078 5 5.162 5 5.25C5 5.664 4.328 6 3.5 6C2.672 6 2 5.664 2 5.25C2 5.162 2.03 5.078 2.085 5C2.291 5.146 2.847 5.25 3.5 5.25C4.153 5.25 4.71 5.146 4.915 5Z" fill="white"/>
<path d="M3.5 13C4.32843 13 5 12.3284 5 11.5C5 10.6716 4.32843 10 3.5 10C2.67157 10 2 10.6716 2 11.5C2 12.3284 2.67157 13 3.5 13Z" fill="white"/>
<path d="M1.762 1.303C1.065 0.860001 0.5 1.175 0.5 1.998V13.002C0.5 13.829 1.168 14.5 2.003 14.5H12L5 7.5H11.5L1.762 1.303Z" stroke="black" stroke-opacity="0.1"/>
</g>
</g>
<defs>
<clipPath id="clip0_3_78">
<rect width="13" height="15" fill="white"/>
</clipPath>
</defs>
</svg>
